brandFactory_export/3.Masa/Nuevo_Destacado_Oferta_3Masa.svg

<?xml version="1.0" encoding="UTF-8"?>
<svg width="24px" height="24px" viewBox="0 0 24 24" version="1.1" xmlns="http://www.w3.org/2000/svg" xmlns:xlink="http://www.w3.org/1999/xlink">
    <title>3.Masa/Nuevo_Destacado_Oferta_3Masa</title>
    <g id="Symbols" stroke="none" stroke-width="1" fill="none" fill-rule="evenodd">
        <g id="3.Masa/Nuevo_Destacado_Oferta_3Masa" fill="#5CB615" fill-rule="nonzero">
            <path d="M11.7781513,23.5529412 C11.1361345,23.5529412 10.7327731,23.0352941 10.6016807,22.8638655 C10.3697479,22.5647059 10.1647059,22.194958 9.9697479,21.8386555 C9.80504202,21.5394958 9.50588235,20.9915966 9.33781513,20.8705882 C9.12268908,20.887395 8.56470588,21.2235294 8.25882353,21.4084034 C7.45210084,21.8957983 6.61848739,22.4 5.88907563,21.9764706 C5.14957983,21.5495798 5.1697479,20.5680672 5.18991597,19.6168067 C5.19663866,19.2672269 5.21008403,18.6252101 5.12268908,18.4336134 C4.93109244,18.3462185 4.28907563,18.3596639 3.9394958,18.3663866 C2.98823529,18.3865546 2.00672269,18.4067227 1.57983193,17.6672269 C1.15966387,16.9344538 1.6605042,16.1008403 2.14789916,15.2941176 C2.33277311,14.9882353 2.66890756,14.4302521 2.68571429,14.2151261 C2.56134454,14.0470588 2.01680672,13.7478992 1.71428571,13.5831933 C1.35798319,13.3882353 0.988235294,13.1831933 0.68907563,12.9512605 C0,12.4201681 0,11.9361345 0,11.7781513 C0,11.1361345 0.517647059,10.7327731 0.68907563,10.6016807 C0.988235294,10.3697479 1.35798319,10.1647059 1.71428571,9.9697479 C2.01344538,9.80504202 2.56134454,9.50588235 2.68235294,9.33781513 C2.66554622,9.12268908 2.32941176,8.56470588 2.14453782,8.25882353 C1.65714286,7.45210084 1.15294118,6.61848739 1.57647059,5.88907563 C2.00336134,5.14957983 2.98487395,5.1697479 3.93613445,5.18991597 C4.28571429,5.19663866 4.92773109,5.21008403 5.11932773,5.12268908 C5.20672269,4.93109244 5.19327731,4.28907563 5.18655462,3.9394958 C5.16638655,2.98823529 5.14621849,2.00672269 5.88571429,1.57983193 C6.61848739,1.15630252 7.45210084,1.6605042 8.25546218,2.14789916 C8.56134454,2.33277311 9.11932773,2.66890756 9.33109244,2.68571429 C9.49915966,2.56134454 9.79831933,2.01680672 9.96302521,1.71764706 C10.1579832,1.36134454 10.3630252,0.991596639 10.594958,0.692436975 C11.1294118,0.00336134454 11.6134454,0.00336134454 11.7714286,0.00336134454 C12.4134454,0.00336134454 12.8168067,0.521008403 12.9478992,0.692436975 C13.1798319,0.991596639 13.3848739,1.36134454 13.5798319,1.71764706 C13.7478992,2.01680672 14.0470588,2.56134454 14.2151261,2.68571429 C14.4302521,2.66890756 14.9882353,2.33277311 15.2941176,2.14789916 C16.1008403,1.6605042 16.9344538,1.15630252 17.6672269,1.57983193 C18.4067227,2.00672269 18.3865546,2.98823529 18.3663866,3.9394958 C18.3596639,4.28907563 18.3462185,4.93109244 18.4336134,5.12268908 C18.6252101,5.21008403 19.2672269,5.19663866 19.6168067,5.18991597 C20.5680672,5.1697479 21.5495798,5.14957983 21.9764706,5.88907563 C22.4,6.62184874 21.8957983,7.45546218 21.4084034,8.25882353 C21.2235294,8.56470588 20.887395,9.12268908 20.8705882,9.33781513 C20.994958,9.50588235 21.5394958,9.80504202 21.8386555,9.9697479 C22.194958,10.1647059 22.5647059,10.3697479 22.8638655,10.6016807 C23.5529412,11.1361345 23.5529412,11.6201681 23.5529412,11.7781513 C23.5529412,12.4201681 23.0352941,12.8235294 22.8638655,12.9546218 C22.5647059,13.1865546 22.194958,13.3915966 21.8386555,13.5865546 C21.5394958,13.7512605 20.9915966,14.0504202 20.8705882,14.2184874 C20.887395,14.4336134 21.2235294,14.9915966 21.4084034,15.2941176 C21.8957983,16.1008403 22.4,16.9344538 21.9764706,17.6638655 C21.5495798,18.4033613 20.5647059,18.3831933 19.6168067,18.3630252 C19.2672269,18.3563025 18.6252101,18.3428571 18.4336134,18.4302521 C18.3462185,18.6218487 18.3596639,19.2638655 18.3663866,19.6134454 C18.3865546,20.5647059 18.4067227,21.5462185 17.6672269,21.9731092 C16.9344538,22.3966387 16.1042017,21.892437 15.297479,21.405042 C14.9915966,21.2201681 14.4336134,20.8840336 14.2218487,20.8672269 C14.0537815,20.9915966 13.7546218,21.5361345 13.589916,21.8352941 C13.394958,22.1915966 13.189916,22.5613445 12.9579832,22.8605042 C12.4201681,23.5529412 11.9361345,23.5529412 11.7781513,23.5529412 Z" id="Path"></path>
        </g>
    </g>
</svg>

<svg width="24" height="24" viewBox="0 0 24 24" xmlns="http://www.w3.org/2000/svg"><path d="M11.778 23.553c-.642 0-1.045-.518-1.176-.69-.232-.298-.437-.668-.632-1.024-.165-.3-.464-.847-.632-.968-.215.016-.773.353-1.08.537-.806.488-1.64.992-2.369.568-.74-.426-.72-1.408-.7-2.36.008-.349.021-.99-.066-1.182-.192-.088-.834-.074-1.184-.068-.95.02-1.932.04-2.36-.699-.42-.733.082-1.566.569-2.373.185-.306.52-.864.538-1.079-.125-.168-.67-.467-.972-.632-.356-.195-.726-.4-1.025-.632C0 12.421 0 11.936 0 11.778c0-.642.518-1.045.69-1.176.298-.232.668-.437 1.024-.632.3-.165.847-.464.968-.632-.016-.215-.353-.773-.537-1.08-.488-.806-.992-1.64-.569-2.369.427-.74 1.409-.72 2.36-.7.35.008.992.021 1.183-.066.088-.192.074-.834.068-1.184-.02-.95-.04-1.932.699-2.36.732-.423 1.566.082 2.37.569.305.185.863.52 1.075.538.168-.125.467-.67.632-.968.195-.357.4-.726.632-1.026.534-.689 1.018-.689 1.176-.689.642 0 1.046.518 1.177.69.232.299.437.668.632 1.025.168.299.467.843.635.968.215-.017.773-.353 1.08-.538.806-.487 1.64-.992 2.372-.568.74.427.72 1.408.7 2.36-.007.35-.02.991.067 1.183.191.087.833.074 1.183.067.951-.02 1.933-.04 2.36.7.423.732-.081 1.565-.569 2.369-.184.306-.52.864-.537 1.079.124.168.668.467.968.632.356.195.726.4 1.025.632.689.534.689 1.018.689 1.176 0 .642-.518 1.046-.69 1.177-.298.232-.668.437-1.024.632-.3.164-.847.463-.968.631.016.216.353.774.537 1.076.488.807.992 1.64.568 2.37-.426.74-1.411.72-2.36.699-.349-.007-.99-.02-1.182.067-.088.192-.074.834-.068 1.183.02.952.04 1.933-.699 2.36-.733.424-1.563-.08-2.37-.568-.305-.185-.863-.521-1.075-.538-.168.125-.467.67-.632.968-.195.357-.4.726-.632 1.026-.538.692-1.022.692-1.18.692z" fill="#5CB615" fill-rule="nonzero"/></svg>
